!!!COM: Bach, Johann Sebastian
!!!CDT: 1685/3//-1750/7/28/
!!!OTL@@DE: Wer nur den lieben Gott laesst walten
!!!SCT: BH 339
!!!SCT: BWV 179
!!!AGN: 4-Part Chorale
**harm	**root	**kern	**kern	**kern	**kern
*	*Iorgan	*Iorgan	*Iorgan	*Iorgan	*Iorgan
!	!	!bass	!tenor	!alto	!soprno
*	*	*clefF4	*clefF4	*clefG2	*clefG2
*M4/4	*M4/4	*M4/4	*M4/4	*M4/4	*M4/4
*met(c)	*met(c)	*met(c)	*met(c)	*met(c)	*met(c)
*MM60	*MM60	*MM60	*MM60	*MM60	*MM60
*k[f#c#g#d#]	*k[f#c#g#d#]	*k[f#c#g#d#]	*k[f#c#g#d#]	*k[f#c#g#d#]	*k[f#c#g#d#]
*c#:	*c#:	*c#:	*c#:	*c#:	*c#:
*>A	*>A	*>A	*>A	*>A	*>A
i	4AA	8c#	4e	4g#	4g#
.	.	8B	.	.	.
=1	=1	=1	=1	=1	=1
VI	4FF	4A	8e	16g#	4cc#
.	.	.	.	16f#	.
.	.	.	16d#	4a	.
.	.	.	16c#	.	.
V	4EE	4G#	8B#	.	4dd#
.	.	.	8g#	16g#	.
.	.	.	.	16f#	.
I	4AA	4C#	4g#	8e	4ee
.	.	.	.	4cc#	.
V/V	4BB	4D#	4f##	.	4dd#
.	.	.	.	[8b	.
=2	=2	=2	=2	=2	=2
V7b/IV	4AA	4E#	4g#	8b]	4cc#
.	.	.	.	16a#	.
.	.	.	.	16g#	.
Vb/V	4BB	4F##	4d#	8a#	4dd#
.	.	.	.	8a#	.
V7	2EE	2G#	4.d#	8a#	4.b#
.	.	.	.	8g#	.
.	.	.	.	8f#	.
.	.	.	8c#	8e	8a#
=3	=3	=3	=3	=3	=3
V;	4EE;	4G#;	4B#;	4d#;	4g#;
vii/IV	4CC#	4E#	4G#	8g#	4b
.	.	.	.	8f#	.
V7/IV	4AA	4C#	4c#	4e#	4b
iv	4DD	4A	4c#	4f#	4a
=4	=4	=4	=4	=4	=4
V7d	8EE	8F#	8B#	8d#	4g#
ib	8AA	8E	8c#	8e	.
ii7Dc	8BB	8A	8d#	8f#	4cc#
ic	8AA	8G#	8e	8g#	.
vii7D/V	4DD#	4F##	8e	4a#	4cc#
.	.	.	8d#	.	.
V	4EE	4G#	4d#	4g#	4b#
=5	=5	=5	=5	=5	=5
I	2.AA	2.C#;	2.e#;	2.g#;	2.cc#;
!!linebreak: 2
=:|!	=:|!	=:|!	=:|!	=:|!	=:|!
*>B	*>B	*>B	*>B	*>B	*>B
V	4EE	4G#	4g#	4b#	4dd#
=6	=6	=6	=6	=6	=6
i	4AA	4c#	16g#	4cc#	4ee
.	.	.	16e	.	.
.	.	.	4a	.	.
V7/III	4GG	8B	.	4dd#	4ff#
.	.	8A	16g#	.	.
.	.	.	16a	.	.
III	4CC	8G#	8e	8ee	4gg#
.	.	8F#	8f#	8b	.
III	4CC	4E	4g#	8ee	4gg#
.	.	.	.	8dd	.
=7	=7	=7	=7	=7	=7
iv	4DD	8F#	8a	4cc#	4ff#
.	.	16G#	8f#	.	.
.	.	16A	.	.	.
V7/III	4GG	8B	8b	4dd#	4ff#
.	.	8BB	8a	.	.
III;	4CC;	4E;	4g#;	4b;	4ee;
III	4CC	4E	4e	4b	4gg#
=8	=8	=8	=8	=8	=8
iv	4DD	4F#	8e	4a	4ff#
.	.	.	8d#	.	.
vii7D/V	4DD#	4F##	8c#	4a#	4ee
.	.	.	16B#	.	.
.	.	.	16c#	.	.
V7	4EE	4G#	8G#	4b#	4dd#
.	.	.	8f#	.	.
VI	4FF	4A	8e	4cc#	4cc#
.	.	.	8d#	.	.
=9	=9	=9	=9	=9	=9
vii7D/V	4DD#	8A#	4.c#	8f##	4ee
.	.	8F##	.	8a#	.
V7	4EE	8G#	.	8a	4dd#
.	.	8GG#	8B#	16g#	.
.	.	.	.	16f#	.
I;	4AA;	4C#;	4G#;	4e#;	4cc#;
==	==	==	==	==	==
*-	*-	*-	*-	*-	*-
!!chor2scor: -l 2 -s 0.6 -o %b.pmx
!!!YEC: Copyright 2003 by Craig Stuart Sapp
!!!license: GNU General Public License (http://www.gnu.org/copyleft/gpl.html)
!!!SMA: 371 Bach Chorales, edited by Ludwig Erk, C.F. Peters
!!!PDT: 1850, 1865
!!!ONB: Harmony and Root analysis done manually by Craig Sapp
